storage/app/icons/phosphoricons/light/rows-plus-bottom-light.svg

<svg xmlns="http://www.w3.org/2000/svg" fill="currentColor" viewBox="0 0 256 256"><path d="M208 114H48a14 14 0 0 0-14 14v24a14 14 0 0 0 14 14h160a14 14 0 0 0 14-14v-24a14 14 0 0 0-14-14m2 38a2 2 0 0 1-2 2H48a2 2 0 0 1-2-2v-24a2 2 0 0 1 2-2h160a2 2 0 0 1 2 2Zm-2-110H48a14 14 0 0 0-14 14v24a14 14 0 0 0 14 14h160a14 14 0 0 0 14-14V56a14 14 0 0 0-14-14m2 38a2 2 0 0 1-2 2H48a2 2 0 0 1-2-2V56a2 2 0 0 1 2-2h160a2 2 0 0 1 2 2Zm-52 136a6 6 0 0 1-6 6h-18v18a6 6 0 0 1-12 0v-18h-18a6 6 0 0 1 0-12h18v-18a6 6 0 0 1 12 0v18h18a6 6 0 0 1 6 6"/></svg>

<svg xmlns="http://www.w3.org/2000/svg" viewBox="0 0 256 256" fill="currentColor"><path d="M208,114H48a14,14,0,0,0-14,14v24a14,14,0,0,0,14,14H208a14,14,0,0,0,14-14V128A14,14,0,0,0,208,114Zm2,38a2,2,0,0,1-2,2H48a2,2,0,0,1-2-2V128a2,2,0,0,1,2-2H208a2,2,0,0,1,2,2ZM208,42H48A14,14,0,0,0,34,56V80A14,14,0,0,0,48,94H208a14,14,0,0,0,14-14V56A14,14,0,0,0,208,42Zm2,38a2,2,0,0,1-2,2H48a2,2,0,0,1-2-2V56a2,2,0,0,1,2-2H208a2,2,0,0,1,2,2ZM158,216a6,6,0,0,1-6,6H134v18a6,6,0,0,1-12,0V222H104a6,6,0,0,1,0-12h18V192a6,6,0,0,1,12,0v18h18A6,6,0,0,1,158,216Z"/></svg>
